X: 6668
T: Celanova Square
R: jig
M: 6/8
K: Amajor
c2 F BcF|cBc BAF|EFF A2 B|c2 f ecB:|
c2 e fec|efa feB|c2 e fec|eAc BAB|
c2 e fec|efa f2 g|afe fec|eAc BAB||

